findly-builder/apps/searchassist/src/assets/images/source-icos/addfaqmanually.svg

<svg width="76" height="76" viewBox="0 0 76 76" fill="none" xmlns="http://www.w3.org/2000/svg">
<path d="M56.9998 26.9166V66.5C56.9998 68.2495 55.5828 69.6666 53.8332 69.6666H15.8332C14.0836 69.6666 12.6665 68.2495 12.6665 66.5V15.8333C12.6665 14.0837 14.0836 12.6666 15.8332 12.6666H42.7498L56.9998 26.9166Z" fill="#7027E5"/>
<path opacity="0.05" d="M15.8335 12.6666H57.0002V66.5H21.6617C18.4428 66.5 15.8335 63.8906 15.8335 60.6717V12.6666Z" fill="black"/>
<path opacity="0.07" d="M17.4165 12.6666H48.9898C53.4136 12.6666 56.9998 16.2529 56.9998 20.6767V64.9166H21.9116C19.4289 64.9166 17.4165 62.9042 17.4165 60.4215V12.6666Z" fill="black"/>
<path d="M63.3333 22.1667V60.1667C63.3333 61.9163 61.9162 63.3334 60.1667 63.3334H22.1667C20.4171 63.3334 19 61.9163 19 60.1667V9.50004C19 7.75046 20.4171 6.33337 22.1667 6.33337H47.5L63.3333 22.1667Z" fill="#B893F2"/>
<path d="M47.5 6.33337V19C47.5 20.7496 48.9171 22.1667 50.6667 22.1667H63.3333L47.5 6.33337Z" fill="#7027E5"/>
<path d="M38.2629 43.9359C38.1584 43.6636 37.9336 42.8561 37.9336 42.0565C37.9336 37.506 42.6186 37.3319 42.6186 33.9562C42.6186 31.8314 40.5192 31.6999 40.1439 31.6999C37.7594 31.6999 35.8974 33.0632 35.1152 33.7519V29.0352C35.9196 28.5554 37.7594 27.5944 40.6933 27.5944C47.4858 27.5944 47.5713 32.2636 47.5713 33.2659C47.5713 38.6555 42.0091 39.0561 42.0091 42.5094C42.0091 43.2298 42.2703 43.757 42.3843 43.9344H38.2629V43.9359ZM40.5492 51.3444C39.2557 51.3444 37.8892 50.5369 37.8892 48.9709C37.8892 47.405 39.3095 46.626 40.5492 46.626C41.789 46.626 43.1665 47.3211 43.1665 48.9709C43.1665 50.6208 41.8428 51.3444 40.5492 51.3444Z" fill="#F1E9FB"/>
</svg>

<svg width="76" height="76" fill="none" xmlns="http://www.w3.org/2000/svg"><path d="M57 26.917V66.5a3.166 3.166 0 0 1-3.167 3.167h-38a3.166 3.166 0 0 1-3.167-3.167V15.833a3.166 3.166 0 0 1 3.167-3.166H42.75L57 26.917Z" fill="#7027E5"/><path opacity=".05" d="M15.834 12.667H57V66.5H21.662a5.828 5.828 0 0 1-5.828-5.828V12.667Z" fill="#000"/><path opacity=".07" d="M17.416 12.667H48.99a8.01 8.01 0 0 1 8.01 8.01v44.24H21.912a4.495 4.495 0 0 1-4.495-4.495V12.666Z" fill="#000"/><path d="M63.333 22.167v38a3.166 3.166 0 0 1-3.166 3.166h-38A3.166 3.166 0 0 1 19 60.167V9.5a3.166 3.166 0 0 1 3.167-3.167H47.5l15.833 15.834Z" fill="#B893F2"/><path d="M47.5 6.333V19a3.166 3.166 0 0 0 3.167 3.167h12.666L47.5 6.333Z" fill="#7027E5"/><path d="M38.263 43.936a6.054 6.054 0 0 1-.33-1.88c0-4.55 4.686-4.724 4.686-8.1 0-2.125-2.1-2.256-2.475-2.256-2.385 0-4.247 1.363-5.029 2.052v-4.717c.805-.48 2.644-1.44 5.578-1.44 6.793 0 6.878 4.669 6.878 5.67 0 5.39-5.562 5.791-5.562 9.244 0 .72.261 1.248.375 1.425h-4.121v.002Zm2.286 7.408c-1.293 0-2.66-.807-2.66-2.373 0-1.566 1.42-2.345 2.66-2.345 1.24 0 2.617.695 2.617 2.345 0 1.65-1.323 2.373-2.617 2.373Z" fill="#F1E9FB"/></svg>
